X: 3
T: The Morpeth Rant
R: reel
M: 4/4
L: 1/8
K: Dmaj
|:(3ABc|d2AG FDFA|BGBd cAce|dfaf gfed|cdec Agfe|d2AG FDFA|BGBd cAce|dfaf gfec|A2d2 d2:||:A2|dfaf dfaf|gfga g2g2|gfed cdeg|fefg f2f2|dfaf dfaf|gfga g2g2|gfed ceag|f2d2 d2:|


Tune 1310	Setting 26066

